Sources/FrostedUI/Resources/Icons.xcassets/microphone20.imageset/microphone-20.svg

<svg width="20" height="20" viewBox="0 0 20 20" fill="none" xmlns="http://www.w3.org/2000/svg" data-fui-icon="true">
  <path
    d="M17.5 8C17.9142 8 18.25 8.33579 18.25 8.75C18.25 12.956 15.1024 16.4245 11.0343 16.9333C10.8738 16.9534 10.75 17.0877 10.75 17.2495V18.1875C10.75 18.3601 10.8899 18.5 11.0625 18.5H13.25C13.6642 18.5 14 18.8358 14 19.25C14 19.6642 13.6642 20 13.25 20H6.75C6.33579 20 6 19.6642 6 19.25C6 18.8358 6.33579 18.5 6.75 18.5H8.9375C9.11009 18.5 9.25 18.3601 9.25 18.1875V17.2495C9.25 17.0877 9.12616 16.9534 8.96569 16.9333C4.89764 16.4245 1.75 12.956 1.75 8.75C1.75 8.33579 2.08579 8 2.5 8C2.91421 8 3.25 8.33579 3.25 8.75C3.25 12.4779 6.27208 15.5 10 15.5C13.7279 15.5 16.75 12.4779 16.75 8.75C16.75 8.33579 17.0858 8 17.5 8ZM10 1.25C12.7614 1.25 15 3.48858 15 6.25V8.75C15 11.5114 12.7614 13.75 10 13.75C7.32472 13.75 5.14053 11.6489 5.00684 9.00684L5 8.75V6.25C5 3.48858 7.23858 1.25 10 1.25ZM10 2.75C8.067 2.75 6.5 4.317 6.5 6.25V8.75C6.5 10.683 8.067 12.25 10 12.25C11.933 12.25 13.5 10.683 13.5 8.75V6.25C13.5 4.317 11.933 2.75 10 2.75Z"
    fill="currentColor"
  />
</svg>

<svg xmlns="http://www.w3.org/2000/svg" width="20" height="20" fill="none" data-fui-icon="true" viewBox="0 0 20 20"><path fill="currentColor" d="M17.5 8a.75.75 0 0 1 .75.75 8.25 8.25 0 0 1-7.216 8.183.32.32 0 0 0-.284.317v.938c0 .172.14.312.313.312h2.187a.75.75 0 0 1 0 1.5h-6.5a.75.75 0 0 1 0-1.5h2.188c.172 0 .312-.14.312-.312v-.938a.32.32 0 0 0-.284-.317A8.25 8.25 0 0 1 1.75 8.75a.75.75 0 0 1 1.5 0 6.75 6.75 0 0 0 13.5 0A.75.75 0 0 1 17.5 8M10 1.25a5 5 0 0 1 5 5v2.5a5 5 0 0 1-9.993.257L5 8.75v-2.5a5 5 0 0 1 5-5m0 1.5a3.5 3.5 0 0 0-3.5 3.5v2.5a3.5 3.5 0 1 0 7 0v-2.5a3.5 3.5 0 0 0-3.5-3.5"/></svg>
